src/lib/packages/icons/src/assets/filled/headphones.svg

<svg width="24" height="24" viewBox="0 0 24 24" fill="none" xmlns="http://www.w3.org/2000/svg">
<path d="M21.75 12C21.75 13.505 21.5399 15.093 21.1599 16.634C21.1529 16.667 21.154 16.6999 21.146 16.7319C21.128 16.8039 21.104 16.8731 21.085 16.9451C21.057 17.0531 21.0229 17.1569 20.9929 17.2649C20.8989 17.6079 20.8099 17.9529 20.7009 18.2849L20.23 19.8101C19.866 20.9891 18.7741 21.75 17.5991 21.75C17.3331 21.75 17.0641 21.7109 16.7981 21.6299L15.832 21.335C15.386 21.199 15.0181 20.8959 14.7981 20.4819C14.5791 20.0689 14.5329 19.5959 14.6709 19.1489L16.155 14.2949C16.292 13.8469 16.5941 13.48 17.0081 13.261C17.4231 13.042 17.899 12.997 18.342 13.134L19.2839 13.4231C19.6009 13.5201 19.884 13.6759 20.134 13.8669C20.204 13.2369 20.25 12.61 20.25 12.001C20.25 7.45198 16.549 3.75098 12 3.75098C7.451 3.75098 3.75 7.45198 3.75 12.001C3.75 12.61 3.79597 13.236 3.86597 13.866C4.11597 13.675 4.39906 13.5191 4.71606 13.4221L5.65796 13.1331C6.10196 12.9951 6.57794 13.04 6.99194 13.26C7.40494 13.479 7.70797 13.8459 7.84497 14.2939L9.3291 19.1499C9.4671 19.5959 9.4209 20.0699 9.2019 20.4829C8.9819 20.8969 8.61399 21.1989 8.16699 21.3359L7.2019 21.6311C6.9359 21.7131 6.66688 21.751 6.40088 21.751C5.22588 21.751 4.13402 20.99 3.77002 19.811L3.29712 18.2781C3.18912 17.9511 3.09793 17.5999 3.00293 17.2539C2.97493 17.1499 2.94104 17.0511 2.91504 16.9451C2.89604 16.8721 2.872 16.8059 2.854 16.7329C2.846 16.6999 2.84709 16.668 2.84009 16.635C2.46009 15.095 2.25 13.506 2.25 12.001C2.25 6.62498 6.624 2.25098 12 2.25098C17.376 2.25098 21.75 6.624 21.75 12Z" fill="currentColor"/>
</svg>

<svg xmlns="http://www.w3.org/2000/svg" width="24" height="24" fill="none"><path fill="currentColor" d="M21.75 12c0 1.505-.21 3.093-.59 4.634-.007.033-.006.066-.014.098-.018.072-.042.141-.061.213-.028.108-.062.212-.092.32-.094.343-.183.688-.292 1.02l-.471 1.525a2.758 2.758 0 0 1-3.432 1.82l-.966-.295a1.739 1.739 0 0 1-1.034-.853 1.734 1.734 0 0 1-.127-1.333l1.484-4.854c.137-.448.44-.815.853-1.034a1.743 1.743 0 0 1 1.334-.127l.942.29c.317.096.6.252.85.443.07-.63.116-1.257.116-1.866 0-4.549-3.701-8.25-8.25-8.25-4.549 0-8.25 3.701-8.25 8.25 0 .609.046 1.235.116 1.865.25-.191.533-.347.85-.444l.942-.289c.444-.138.92-.093 1.334.127.413.219.716.586.853 1.034l1.484 4.856c.138.446.092.92-.127 1.333-.22.414-.588.716-1.035.853l-.965.295a2.758 2.758 0 0 1-3.432-1.82l-.473-1.533c-.108-.327-.2-.678-.294-1.024-.028-.104-.062-.203-.088-.309-.019-.073-.043-.14-.061-.212-.008-.033-.007-.065-.014-.098-.38-1.54-.59-3.129-.59-4.634 0-5.376 4.374-9.75 9.75-9.75S21.75 6.624 21.75 12Z"/></svg>
